X: 618
T: Nora With the Amber Hair.
T: nora an cuil omra.
R:air
N:"Tenderly."
B:O'Neill's 618
Z:Transcribed by John Walsh (walsh@math.ubc.ca)
M:3/4
L:1/8
%Q:110
K:G
gf|e2 d2 BA|(B2G2) (GB)|(A2 G2) .G2|G4 (GA)|
B2 d2 ((3efg)|f2 {e}d2 (BA)|(B2 d2) (e>d)|d4 ((3GBd)|
g2 (gf)(ed)|(=f2 e2) ((3dBA)|G2 (GA) (Bc/d/)|H=f4 (g^f)|
e2 d2 (BA)|B2 (GF) ((3GAB)|(A2 G2) .G2|G4||


